X: 12015
T: Er Pasker
R: mazurka
M: 3/4
K: Gmajor
ef/e/ dB e/e/d|ef/e/ dB e/e/d|ef/e/ dc/d/ B2|
B/e/f/e/ dB e/e/d|ef/e/ dB e/e/d|ef/e/ dc/d/ B2|
|:AB/c/ dB e/e/d|ec/d/ ef ef/g/|
ag/f/ df e2|1 d/e/e/d/ c>B A2|2 d/e/e/d/ c>B AG/A/:|

